X: 13
T: Fermoy Lasses, The
Z: leprecawn
S: https://thesession.org/tunes/219#setting48942
R: reel
M: 4/4
L: 1/8
K: Emin
|:GE (3EEE BE (3EEE|GE (3EEE BcBA|GE (3EEE BE (3EEE|AFDF AcBA|
GE (3EEE BE (3EEE2|GEE2 BcBA|G2GF GBdB|AFDF AcBA:|
|:G2BG dGBG|G2 (3Bcd ef g2|G2BG dGBG|AFGF AcBA|
G2BG dGBG|G2 (3Bcd ef g2|afge dedB|AFDF AcBA:|

